packages/icons/svg/Outline/flash-off.svg

<svg fill="none" height="24" viewBox="0 0 24 24" width="24" xmlns="http://www.w3.org/2000/svg"><path clip-rule="evenodd" d="m11.1931 8.36425.262-2.421-1.075 1.608-1.44195-1.441 3.11995-4.666c.255-.384.74-.542001 1.172-.384.433.157.703.59.653 1.047l-.769 7.093h5.886c.369 0 .708.203.882.528.174.32595.154.72105-.051 1.02695l-2.503 3.7451-1.441-1.442 1.242-1.8581h-3.101zm9.5139 10.92865-15.99999-15.99999c-.391-.391-1.023-.391-1.414 0s-.391 1.023 0 1.414l15.99999 15.99999c.195.195.451.293.707.293s.512-.098.707-.293c.391-.391.391-1.023 0-1.414zm-8.1621-1.2365.262-2.421-2.835-2.836h-3.101l1.242-1.858-1.441-1.44202-2.503 3.74502c-.205.306-.225.701-.051 1.027.174.325.513.528.882.528h5.886l-.769 7.093c-.05.457.22.89.653 1.047.112.041.227.06.341.06.327 0 .642-.16.831-.444l3.12-4.666-1.442-1.441z" fill="#6b7280" fill-rule="evenodd"/></svg>

<svg width="24" height="24" viewBox="0 0 24 24" fill="none" xmlns="http://www.w3.org/2000/svg">
<g id="Icon/Outline/flash-off">
<path id="Mask" fill-rule="evenodd" clip-rule="evenodd" d="M11.1931 8.3644L11.4551 5.9434L10.3801 7.5514L8.93811 6.1104L12.0581 1.4444C12.3131 1.0604 12.7981 0.902401 13.2301 1.0604C13.6631 1.2174 13.9331 1.6504 13.8831 2.1074L13.1141 9.2004H19.0001C19.3691 9.2004 19.7081 9.4034 19.8821 9.7284C20.0561 10.0544 20.0361 10.4494 19.8311 10.7554L17.3281 14.5004L15.8871 13.0584L17.1291 11.2004H14.0281L11.1931 8.3644ZM20.707 19.293L4.70701 3.293C4.31601 2.902 3.68401 2.902 3.29301 3.293C2.90201 3.684 2.90201 4.316 3.29301 4.707L19.293 20.707C19.488 20.902 19.744 21 20 21C20.256 21 20.512 20.902 20.707 20.707C21.098 20.316 21.098 19.684 20.707 19.293ZM12.5449 18.0566L12.8069 15.6356L9.97191 12.7996H6.87091L8.11291 10.9416L6.67191 9.4996L4.16891 13.2446C3.96391 13.5506 3.94391 13.9456 4.11791 14.2716C4.29191 14.5966 4.63091 14.7996 4.99991 14.7996H10.8859L10.1169 21.8926C10.0669 22.3496 10.3369 22.7826 10.7699 22.9396C10.8819 22.9806 10.9969 22.9996 11.1109 22.9996C11.4379 22.9996 11.7529 22.8396 11.9419 22.5556L15.0619 17.8896L13.6199 16.4486L12.5449 18.0566Z" fill="#000000"/>
</g>
</svg>
